packages/kaspersky-hexa-ui-icons/src/iconsSVGs/28x20/FlagNp.svg

<svg width="28" height="20" viewBox="0 0 28 20" fill="none" xmlns="http://www.w3.org/2000/svg">
<g clip-path="url(#clip0_5138_1557)">
<path d="M0 2C0 0.895431 0.895431 0 2 0H26C27.1046 0 28 0.895431 28 2V18C28 19.1046 27.1046 20 26 20H2C0.895431 20 0 19.1046 0 18V2Z" fill="white"/>
<path d="M26 19.5V20H2V19.5H26ZM27.5 18V2C27.5 1.17157 26.8284 0.5 26 0.5H2C1.17157 0.5 0.5 1.17157 0.5 2V18C0.5 18.8284 1.17157 19.5 2 19.5V20C0.895431 20 0 19.1046 0 18V2C2.57702e-07 0.895431 0.895431 0 2 0H26C27.1046 0 28 0.895431 28 2V18C28 19.1046 27.1046 20 26 20V19.5C26.8284 19.5 27.5 18.8284 27.5 18Z" fill="#F5F5F5"/>
<path fill-rule="evenodd" clip-rule="evenodd" d="M0 2C0 0.895431 0.89543 -1.06478e-09 2 0L2.46482 4.56679e-10C2.59643 5.84276e-10 2.7251 0.0389587 2.83462 0.111966L15.0026 8.22393C16.1002 8.9557 15.5822 10.6667 14.263 10.6667H8L15.9961 17.6632C16.9226 18.474 16.3492 20 15.1181 20H2C0.895428 20 0 19.1046 0 18V2Z" fill="white"/>
<mask id="mask0_5138_1557" style="mask-type:luminance" maskUnits="userSpaceOnUse" x="0" y="0" width="17" height="20">
<path fill-rule="evenodd" clip-rule="evenodd" d="M0 2C0 0.895431 0.89543 -1.06478e-09 2 0L2.46482 4.56679e-10C2.59643 5.84276e-10 2.7251 0.0389587 2.83462 0.111966L15.0026 8.22393C16.1002 8.9557 15.5822 10.6667 14.263 10.6667H8L15.9961 17.6632C16.9226 18.474 16.3492 20 15.1181 20H2C0.895428 20 0 19.1046 0 18V2Z" fill="white"/>
</mask>
<g mask="url(#mask0_5138_1557)">
<mask id="path-5-inside-1_5138_1557" fill="white">
<path fill-rule="evenodd" clip-rule="evenodd" d="M0 0H2.46482C2.59643 0 2.7251 0.0389587 2.83462 0.111966L15.0026 8.22393C16.1002 8.9557 15.5822 10.6667 14.263 10.6667H8L15.9961 17.6632C16.9226 18.474 16.3492 20 15.1181 20H0V0Z"/>
</mask>
<path fill-rule="evenodd" clip-rule="evenodd" d="M0 0H2.46482C2.59643 0 2.7251 0.0389587 2.83462 0.111966L15.0026 8.22393C16.1002 8.9557 15.5822 10.6667 14.263 10.6667H8L15.9961 17.6632C16.9226 18.474 16.3492 20 15.1181 20H0V0Z" fill="#EE1B44" stroke="#0543A8" stroke-width="2.66667" stroke-linejoin="round" mask="url(#path-5-inside-1_5138_1557)"/>
<path fill-rule="evenodd" clip-rule="evenodd" d="M6.85108 7.80077C7.23519 7.6955 7.58931 7.55153 7.9025 7.37614C7.59185 8.50451 6.55834 9.33333 5.33125 9.33333C4.10416 9.33333 3.07064 8.50451 2.75999 7.37614C3.07406 7.55202 3.42927 7.6963 3.81461 7.80164L4.33333 7.33333L3.48557 6.56797L4.62622 6.62622L4.56796 5.48557L5.33333 6.33333L6.09869 5.48557L6.04043 6.62622L7.18109 6.56797L6.33333 7.33333L6.85108 7.80077ZM4.31284 17.1303L5.33333 16L6.35382 17.1303L6.27614 15.6095L7.79701 15.6872L6.66666 14.6667L7.79701 13.6462L6.27614 13.7239L6.35382 12.203L5.33333 13.3333L4.31284 12.203L4.39052 13.7239L2.86965 13.6462L3.99999 14.6667L2.86965 15.6872L4.39052 15.6095L4.31284 17.1303Z" fill="white"/>
</g>
</g>
<defs>
<clipPath id="clip0_5138_1557">
<rect width="28" height="20" fill="white"/>
</clipPath>
</defs>
</svg>

<svg xmlns="http://www.w3.org/2000/svg" width="28" height="20" fill="none" viewBox="0 0 28 20"><g clip-path="url(#a)"><path fill="#fff" d="M0 2C0 .8954.8954 0 2 0h24c1.1046 0 2 .8954 2 2v16c0 1.1046-.8954 2-2 2H2c-1.1046 0-2-.8954-2-2z"/><path fill="#f5f5f5" d="M26 19.5v.5H2v-.5zm1.5-1.5V2c0-.8284-.6716-1.5-1.5-1.5H2C1.1716.5.5 1.1716.5 2v16c0 .8284.6716 1.5 1.5 1.5v.5c-1.1046 0-2-.8954-2-2V2C0 .8954.8954 0 2 0h24c1.1046 0 2 .8954 2 2v16c0 1.1046-.8954 2-2 2v-.5c.8284 0 1.5-.6716 1.5-1.5"/><path fill="#fff" fill-rule="evenodd" d="M0 2C0 .8954.8954 0 2 0h.4648c.1316 0 .2603.039.3698.112l12.168 8.112c1.0976.7317.5796 2.4427-.7396 2.4427H8l7.9961 6.9965c.9265.8108.3531 2.3368-.878 2.3368H2c-1.1046 0-2-.8954-2-2z" clip-rule="evenodd"/><mask id="b" width="17" height="20" x="0" y="0" maskUnits="userSpaceOnUse" style="mask-type:luminance"><path fill="#fff" fill-rule="evenodd" d="M0 2C0 .8954.8954 0 2 0h.4648c.1316 0 .2603.039.3698.112l12.168 8.112c1.0976.7317.5796 2.4427-.7396 2.4427H8l7.9961 6.9965c.9265.8108.3531 2.3368-.878 2.3368H2c-1.1046 0-2-.8954-2-2z" clip-rule="evenodd"/></mask><g mask="url(#b)"><mask id="c" fill="#fff"><path fill-rule="evenodd" d="M0 0h2.4648c.1316 0 .2603.039.3698.112l12.168 8.112c1.0976.7317.5796 2.4427-.7396 2.4427H8l7.9961 6.9965c.9265.8108.3531 2.3368-.878 2.3368H0z" clip-rule="evenodd"/></mask><path fill="#ee1b44" fill-rule="evenodd" stroke="#0543a8" stroke-linejoin="round" stroke-width="3" d="M0 0h2.4648c.1316 0 .2603.039.3698.112l12.168 8.112c1.0976.7317.5796 2.4427-.7396 2.4427H8l7.9961 6.9965c.9265.8108.3531 2.3368-.878 2.3368H0z" clip-rule="evenodd" mask="url(#c)"/><path fill="#fff" fill-rule="evenodd" d="M6.851 7.8008c.3842-.1053.7383-.2493 1.0515-.4247-.3106 1.1284-1.3442 1.9572-2.5712 1.9572S3.0706 8.5045 2.76 7.3761c.314.176.6693.3202 1.0546.4255l.5187-.4683-.8477-.7653 1.1406.0582-.0582-1.1406.7653.8477.7654-.8477-.0583 1.1406 1.1407-.0582-.8478.7653zm-2.5382 9.3295L5.3333 16l1.0205 1.1303-.0777-1.5208 1.521.0777-1.1304-1.0205 1.1303-1.0205-1.5209.0777.0777-1.5209-1.0205 1.1303-1.0205-1.1303.0777 1.5209-1.5209-.0777L4 14.6667l-1.1303 1.0205 1.5208-.0777z" clip-rule="evenodd"/></g></g><defs><clipPath id="a"><path fill="#fff" d="M0 0h28v20H0z"/></clipPath></defs></svg>
